X:265
T:Drops of Brandy
M:9/8
L:1/8
R:Slip Jig
K:G
|:d2c BGB BGB|d2c BGB cBA|ded BGB BGB|cBc AFA cBA|
|d2c BGB BGB|ded BGB cBA|d2c BGB BGB|cBc A2B cBA||
|GBd gdB gdB|GBd gdB cBA|GBd gdB gdB|cBc A2B cBA|
|GBd gdB gdB|GBd gdB cBA|GBd gdB gdB|cBc A2B cBA:||
